!!!COM: Power, Leonel
!!!OTL: Salve sancta parens
!!!ONM: No. 14
!!!YOR: from: "Complete Works" edited by Charles Hamm, Vol. 1, Motets, pp.23-25
!!!YOO: American Institute of Musicology
!!!YOY: 1969
**kern	**kern	**kern
*ICvox	*ICvox	*ICvox
! tenor	! contratenor	! discantus
*M3/4	*M3/4	*M3/4
!! Section 'A'; (O) mensuration.
*>A	*>A	*>A
[2.c	2.r	2.cc
=1	=1	=1
4c]	2.r	4a
2e	.	8cc
.	.	8b
.	.	16a
.	.	16b
.	.	8g
=2	=2	=2
4.f	2.r	4f
.	.	4r
8e	.	.
4c	.	8cc
.	.	8dd
=3	=3	=3
4e	2.r	4.cc
4c	.	.
.	.	16b
.	.	16cc
4d	.	8b
.	.	8a
=4	=4	=4
4c	2.r	4cc
8A	.	4r
8B-	.	.
4G	.	4b
=5	=5	=5
2F	2.r	4dd
.	.	4cc
4r	.	[4a
=6	=6	=6
4f	2.r	4a]
4g	.	8b
.	.	8g
4f	.	8cc
.	.	8dd
=7	=7	=7
8e	2.r	8.cc
4c	.	16b
.	.	16a
.	.	16g
8e	.	8cc
4d	.	16b
.	.	16cc
.	.	16b
.	.	16a
=8	=8	=8
2c	2.r	2cc
4r	.	[4g
=9	=9	=9
4G	2.r	4g]
8A	.	8f
8B-	.	4g
4c	.	.
.	.	8e
=10	=10	=10
8d	2.r	4f
4f	.	.
.	.	8d
8e	.	8c
8d	.	8B
8c	.	8c
=11	=11	=11
4Bnx	2.r	4d
4c	.	4c
8A	.	8f
8G	.	[8g
=12	=12	=12
4B-	2.r	8g]
.	.	4f
8A	.	.
8B-	.	16e
.	.	16f
4G	.	8e
.	.	8d
!! Three-voice texture
=13	=13	=13
[2.F	2r	2.f
*>B	*>B	*>B
!! Section 'B'; (O) mensuration.
.	4c	.
=14	=14	=14
2.F]	2c	2r
.	4d	4f
=15	=15	=15
[2.c	2e	2a
.	4c	4g
=16	=16	=16
2.c]	4g	4e
.	8f	4.a
.	4e	.
.	8c	8g
=17	=17	=17
2.B-	2d	4g
.	.	8f
.	.	8e
.	4B-	8d
.	.	8e
=18	=18	=18
2.c	2A	4e
.	.	4c
.	[4F	4r
=19	=19	=19
4A	4F]	4cc
4G	2G	4b-x
[4B-	.	4g
=20	=20	=20
4B-]	4d	4f
[2c	4c	4.a
.	[4e	.
.	.	8g
=21	=21	=21
4c]	4e]	4cc
4d	4f	8b
.	.	4a
4c	8e	.
.	8d	8g
=22	=22	=22
4B-	2d	4.g
2A	.	.
.	.	8f#x
.	4c	8f#x
.	.	8e
=23	=23	=23
2.G	2d	2.g
.	4r	.
=24	=24	=24
2c	2e	4r
.	.	4a
4d	4d	4b
=25	=25	=25
2e	2c	4.g
.	.	8a
[4g	[4G	4b
=26	=26	=26
4g]	4G]	4g
2f	2B-	4.dd
.	.	8cc
=27	=27	=27
4e	4c	4cc
2d	2f	4.b
.	.	8a
=28	=28	=28
[2.c	2g	2.cc
.	4e	.
=29	=29	=29
2.c]	4c	2r
.	4.e	.
.	.	4cc
.	8d	.
=30	=30	=30
2.B-	2.f	[2.dd
=31	=31	=31
2.F	2r	4dd]
.	.	2cc
.	4c	.
=32	=32	=32
4c	4e	4a
4B-	4f	4dd
4c	4e	4cc
=33	=33	=33
4e	4c	2cc
2d	2f	.
.	.	4b
=34	=34	=34
4c	4e	4a
4B-	4.d	4.g
[4A	.	.
.	8c	8f
=35	=35	=35
4A]	2c	8f
.	.	16e
.	.	16f
2G	.	8g
.	.	4e
.	4B-	.
.	.	8d
=36	=36	=36
2F	4c	4f
.	4f	4r
[4c	4e	4a
=37	=37	=37
4c]	4c	4g
2d	2f	4.b
.	.	8a
=38	=38	=38
2c	4g	4cc
.	4.e	8b
.	.	4a
4d	.	.
.	8d	8g
=39	=39	=39
4B-	4d	8g
.	.	8f
2A	4.c	8g
.	.	4f
.	8B-	8e
=40	=40	=40
[2.G	2d	2.g
.	4r	.
=41	=41	=41
2.G]	2g	2.r
.	8f	.
.	8e	.
!! Two-voice texture
=42	=42	=42
2.r	2e	[2.c
*>C	*>C	*>C
!! Section 'C'; (O) mensuration.
.	[4g	.
=43	=43	=43
2.r	4g]	2c]
.	2a	.
.	.	4f
=44	=44	=44
2.r	4g	4e
.	4.f	4.d
.	8e	8c
=45	=45	=45
2.r	8g	4c
.	8f	.
.	8e	4B
.	16f	.
.	16d	.
.	8.c	8c
.	.	8A
.	16d	.
=46	=46	=46
2.r	8e	4c
.	4c	.
.	.	4r
.	8Bnx	.
.	4c	8e
.	.	8f
=47	=47	=47
2.r	4G	4g
.	4d	8a
.	.	8b
.	4e	8g
.	.	[8cc
=48	=48	=48
2.r	4d	8cc]
.	.	8b
.	4c	4cc
.	4r	[4a
=49	=49	=49
2.r	2.f	4a]
.	.	4r
.	.	4f
=50	=50	=50
2.r	2.e	4g
.	.	2cc
=51	=51	=51
2.r	2d	4b
.	.	2a
.	[4c	.
=52	=52	=52
2.r	4c]	4g
.	4A	4a
.	[4A	[4f
=53	=53	=53
2.r	4A]	4f]
.	2B-	2g
=54	=54	=54
2.r	4A	2f
.	2G	.
.	.	4e
=55	=55	=55
2.r	4F	8.f
.	.	16d
.	8G	8e
.	8A	4f
.	8F	.
.	[8c	8g
=56	=56	=56
2.r	8c]	8e
.	8e	8c
.	8d	8B
.	4c	8c
.	.	4d
.	8Bnx	.
!! Three-voice texture
=57	=57	=57
2r	2c	2.c
*>D	*>D	*>D
!! Section 'D'; (O) mensuration.
4c	4e	.
=58	=58	=58
2.B-	2d	2r
.	4B-	4g
=59	=59	=59
2.F	2.c	[2.a
=60	=60	=60
[2.c	2F	2a]
.	4r	4g
=61	=61	=61
4c]	4c	4a
2d	2f	2b
=62	=62	=62
8c	8e	4cc
4f	8f	.
.	8d	8a
8e	4e	8cc
4g	.	8b
.	[8c	[8g
=63	=63	=63
4e	8c]	8g]
.	8g	8cc
8f	8a	8dd
8c	4g	4cc
4d	.	.
.	8f	8b
=64	=64	=64
4c	8g	8cc
.	4f	8.a
4r	.	.
.	.	16b-x
.	8e	8g
4e	4c	4e
=65	=65	=65
2.f	2B-	4d
.	.	4r
.	4F	8a
.	.	8b
=66	=66	=66
8e	4r	4cc
4c	.	.
.	4c	8a
8e	.	8g
8d	8G	8b-
[8f	8F	8a
=67	=67	=67
8f]	4B-	8f
8d	.	4b-x
4c	4c	.
.	.	8a
8B-	4d	4b-x
[8d	.	.
=68	=68	=68
8d]	8f	8r
8c	8e	4a
4B-	4d	.
.	.	8g
8A	4c	4a
[8F	.	.
=69	=69	=69
8F]	8A	8f
8G	8B-	8e
8A	8c	8f
8B-	8d	8g
4G	4B-	8.e
.	.	16d
=70	=70	=70
[2.F	[2.c	[2.f
=71	=71	=71
2.F]	2.c]	2.f]
==	==	==
*-	*-	*-
!!!ENC: Mark Laxton
!!!EDD: Mark Laxton
!!!YEC: Mark Laxton, 1987
!!!EMD: Reference records added by D. Huron, 2001
!!!EEV: 1.1
